X: 12562
T: Farewell To Milltown
R: reel
M: 4/4
K: Adorian
|:EAAG A3B|cAAG AGEF|G2DG EGDG|EG G2 GEDG|
EAAG A3B|cAAG AGEF|G2dG eGdG|BedB A4:|
|:eaag a3b|c'abg agef|g3a gede|gabg aged|
eaag a3b|c'abg agef|g3a gedB|BedB A4:|

